X:1
T:He’ll Do Better for You
T:He’ll Do Better for You
T:John Robson Sweney
T:Eliza Edmunds Hewitt, 1897
T:Public Domain Courtesy of the Cyber Hymnal™
T:Public Domain Courtesy of the Cyber Hymnal™
C:John Robson Sweney
Z:Public Domain
Z:Courtesy of the Cyber Hymnal™
%%score ( 1 2 ) ( 3 4 )
L:1/8
Q:1/4=87
M:4/4
K:Eb
V:1 treble 
V:2 treble 
V:3 bass 
V:4 bass 
V:1
 [EG]>[EG] [EG][EG] [EG][GB][GB][Ac] | [GB][EG]E[DF] [EG]3 [EB] | %2
w: 1.~Come a- way to Je- sus; He is|will- ing to for- give, His|
w: 2.~Come a- way to Je- sus; Let il-|lu- sive tri- fles go, For|
w: 3.~Come a- way to Je- sus; From your|earth- ly i- dols part, And|
 [DB]>[DA] [DA][DF] [FA][EG][EG][EG] | [EG]>[EF] [EF][CE] !fermata![DF]2 (B>A) | %4
w: love will shine a- round you Ev- ery|mo- ment that you live; You’ll *|
w: ev- er- last- ing bless- ing He is|a- ble to be- stow; He’ll *|
w: take His great sal- va- tion, For it|sa- tis- fies the heart; He’ll *|
 [EG][GB][Ge][Ac] [GB]2 ([GB]>[FA]) | [EG][GB][Ge][Ac] [GB]4 | %6
w: find Him good and true, The *|pil- grim jour- ney thro’,|
w: an- swer when you pray, He’ll *|take your sins a- way,|
w: o- pen to your view His *|trea- sures ev- er new,|
 [Ac]>[Ac] [Ac][Ad] [Ge][Ge][EB][FA] | [EG]2 [DF]2 E4 || %8
w: He’ll do bet- ter for you Than this|world can do.|
w: Lead you up and on- ward To His|per- fect day.|
w: He’ll do bet- ter for you Than this|world can do.|
"^Refrain" [GB]>[GB] [EG][FA] [GB][Ge][Bd][Ac] | [GB]2 [Ac]2 [FA]4 | %10
w: ||
w: He’ll do bet- ter for you Than this|world can do;|
w: ||
 [FA]>[FA] [DF][EG] [FA][Bd][Ac][GB] | [FA]2 [DB]2 !fermata![EG]2 ([GB]>[FA]) | %12
w: ||
w: He’s a migh- ty Sav- ior, He is|good and true; He’ll *|
w: ||
 [EG][GB][Ge][Ac] [GB]2 ([GB]>[FA]) | [EG][GB][Ge][Ac] [GB]4 | %14
w: ||
w: save you by His grace, Un- *|til you see His face;|
w: ||
 [Ac]>[Ac] [Ac][Ad] [Ge][Ge][EB][FA] | [EG]2 [DF]2 E4 |] %16
w: ||
w: He’ll do bet- ter for you Than this|world can do.|
w: ||
V:2
 x8 | x2 E x5 | x8 | x6 D2 | x8 | x8 | x8 | x4 E4 || x8 | x8 | x8 | x8 | x8 | x8 | x8 | x4 E4 |] %16
V:3
 [E,B,]>[E,B,] [E,B,][E,B,] [E,B,][E,E][E,E][E,E] | [E,E][E,B,][G,,B,][B,,B,] [E,B,]3 [E,G,] | %2
 [B,,F,]>[B,,F,] [B,,B,][B,,B,] [E,B,][E,B,][E,B,][E,B,] | %3
 [F,=A,]>[F,A,] [F,A,][F,A,] !fermata![B,,B,]2 [B,,B,]2 | [E,B,][E,B,][E,B,][E,E] [E,E]2 [E,E]2 | %5
 [E,B,][E,B,][E,B,][E,E] [E,E]4 | [A,E]>[A,E] [A,E][F,B,] [E,B,][E,B,][G,B,][A,C] | %7
 B,2 [B,,A,]2 [E,G,]4 || [E,E]>[E,E] [E,B,][E,B,] [E,E][E,B,][E,E][E,E] | [B,E]2 [B,D]2 [B,D]4 | %10
 [B,,D]>[B,,D] [B,,B,][B,,B,] [B,,B,][B,,B,][B,,B,][B,,B,] | %11
 [B,,D]2 [B,,B,]2 !fermata![E,B,]2 [E,E]2 | [E,B,][E,B,][E,B,][E,E] [E,E]2 [E,E]2 | %13
 [E,B,][E,B,][E,B,][E,E] [E,E]4 | [A,E]>[A,E] [A,E][F,B,] [E,B,][E,B,][G,B,][A,C] | %15
 B,2 [B,,A,]2 [E,G,]4 |] %16
V:4
 x8 | x8 | x8 | x8 | x8 | x8 | x8 | B,2 x6 || x8 | x8 | x8 | x8 | x8 | x8 | x8 | B,2 x6 |] %16

